X:2731
T:Hunt the Squirrel
O:england
C:Sussex Archaeological Soc MS
M:4/4
L:1/8
K:A
A2e2e2f2|e4c4|A2Bc B2A2|A2Bc B2A2|
A2e2e2f2|e4c4|A2Bc B2A2|A8:|
|:d2e2f2ef|d2e2f2ef|d2e2f2g2|a6gf|
e2c2e2c2|e2c2e4|A2Bc B2A2|A8:|


